build/documents/FolderOutline.svg

<svg xmlns="http://www.w3.org/2000/svg" fill="none" viewBox="0 0 24 24" focusable="false"><path d="M0 0H24V24H0z"/><path fill="#74767B" fill-rule="evenodd" d="M18.7 11.4909L18.7 7.98505L14.7525 7.98505C13.7047 7.98505 12.6931 7.60253 11.9075 6.90934L10.5809 5.73885C10.2703 5.4648 9.87038 5.31357 9.45617 5.31357L5.3 5.31355L5.3 8.8194C4.58203 8.8194 4 9.40143 4 10.1194L4 5.31355C4 4.59558 4.58203 4.01355 5.30001 4.01355L9.45618 4.01357C10.1871 4.01358 10.8929 4.28045 11.441 4.76406L12.7676 5.93455C13.3157 6.41817 14.0215 6.68505 14.7525 6.68505L18.7 6.68505C19.418 6.68505 20 7.26708 20 7.98505L20 12.7909L20 18.6037C20 19.3217 19.418 19.9037 18.7 19.9037L5.3 19.9037C4.58203 19.9037 4 19.3217 4 18.6037L4 10.1194C4 9.40143 4.58203 8.8194 5.3 8.8194L8.83805 8.81944C9.569 8.81944 10.2748 9.08632 10.8229 9.56993L12.1494 10.7404C12.6975 11.224 13.4034 11.4909 14.1343 11.4909L18.7 11.4909ZM18.7 12.7909L18.7 18.6037L5.3 18.6037L5.3 10.1194L8.83804 10.1194C9.25224 10.1194 9.6522 10.2707 9.96279 10.5447L11.2893 11.7152C12.0749 12.4084 13.0866 12.7909 14.1343 12.7909L18.7 12.7909Z"/></svg>

<svg xmlns="http://www.w3.org/2000/svg" fill="none" viewBox="0 0 24 24" focusable="false"><path fill="#74767B" fill-rule="evenodd" d="M18.7 11.49V7.98h-3.95c-1.05 0-2.06-.38-2.85-1.08l-1.32-1.17c-.31-.27-.71-.42-1.13-.42H5.3v3.5c-.72 0-1.3.59-1.3 1.3v-4.8c0-.72.58-1.3 1.3-1.3h4.15c.73 0 1.44.27 1.99.75l1.32 1.17c.55.48 1.26.75 1.99.75h3.95c.71 0 1.3.58 1.3 1.3V18.6c0 .72-.59 1.3-1.3 1.3H5.3c-.72 0-1.3-.58-1.3-1.3v-8.49c0-.71.58-1.3 1.3-1.3h3.53c.73 0 1.44.27 1.99.75l1.32 1.18c.55.48 1.26.75 1.99.75zm0 1.3v5.81H5.3v-8.49h3.53c.42 0 .82.16 1.13.43l1.32 1.17c.79.69 1.8 1.08 2.85 1.08z"/></svg>
